X:713
T:Steamboat Quickstep
M:6/8
S:Colin Hume's website,  colinhume.com  - chords can also be printed below the stave.
Q:3/8=116
Z:The usual tune for the triple-minor dance Sackett's Harbor.
K:A
P:A
|: "A"a2e c2A | "A"Ace a3 | "D"agf edc | "E7"Bed cBA |\
"A"a2e c2A | "A"Ace a3 | "D"agf "A"edc | "E7"edB "A"A3 :|
P:B
|: "A"Ace efe | "A"efe cBA | "D"Ade f2f | "E7"agf e2A |\
"A"Ace efe | "A7"efe cBA | "D"agf "A"edc | "E7"BcB "A"A3 :|

